X: 17533
T: Hills Of Tara, The
R: barndance
M: 4/4
K: Gmajor
M:2/4
|:B/c/|dG GA/B/|cE EA/G/|F/G/A/B/ c/B/A/c/|ed d/c/B/c/|
dG GA/B/|cE EA/G/|F/G/A/B/ c/A/F/G/|AG G:|
|:B/d/|gg ga/g/|fe e>G|cc c/B/A/c/|ed d>f|
gg ga/g/|fe e>G|F/G/A/B/ cA/F/|AG G:|

